X: 10108
T: STEY IN STATE
C: Bob McQuillen 23 May'93
B: Bob's Note Book 10 #108
%R: reel
Z: 2020 John Chambers <jc:trillian.mit.edu>
M: C
L: 1/8
K: A
AF \
| E2EA BAce | a2ae fecA | E2EA BAcA | dAcA BAFA |\
| E2EA BAce | a2ae fecA | dAcA BAcA | EAAB A2  :|
|: ce \
| a2af ecAF | EFAc BAce | f2af ecAB | cABA FAEF |\
| A2ce fecA | EAce fece | abae faec | BABc A2  :|
%%begintext align
%% If you go to Juneau, Alaska, you can
%% eat dinner in a nice restaurant and watch the eagles fly up and down
%% the river. If you know the right people, you might even get to sleep in
%% a brand new bed, like I did when Jim Stey so kindly put me up on my
%% visit there. I really stayed in state, let me tell you! Thanks loads,
%% Jim, for the wonderful time you showed me -  I sure enjoyed being
%% with you --
%%endtext

%%sep 1 1 500

%%sep 1 1 500

